X:592
T:Pastor que tas nel monte (CT 407)
R:Tonada
C:Tradicional
S:Msica Tradicional Asturiana, (C) Tello & Tito. Asturies, 2001.
S:http://pagina.de/MusTradAst <telloytito@asturies.org>
N:Variante de CT 403, CT 404, CT 405, CT 406,  CT 408, dictada por Jaime Martnez Martnez, de ventisis aos, de Uviu, quien dice la aprendi en Nonn, ayuntamiento de Uviu.
A:Asturies
O:Nonn (Uviu)
Z:Cancioneru de Torner 407
M:3/8
L:1/8
Q:3/8=120
K:Cm
G|cc=B|c2 =B|c=Bc|ded|
c2 B|A G2-|GzG|
BBc|B2G|F =E2-|=E2 G|
BBc|B2 A|A G2-|G z :||
W:Pastor que ests en el monte
W:comiendo pan de centeno:
W:si te casaras conmigo,
W:comieras pan de lo bueno.
W:
